src/pos-icons/content-save-settings-outline.svg

<svg height="24" viewBox="0 0 24 24" width="24" xmlns="http://www.w3.org/2000/svg"><path d="m7 22h2v2h-2zm4 0h2v2h-2zm4 0h2v2h-2zm2-20h-12c-1.11 0-2 .9-2 2v14c0 1.1.89 2 2 2h14c1.1 0 2-.9 2-2v-12zm2 16h-14v-14h11.17l2.83 2.83zm-7-7c-1.66 0-3 1.34-3 3s1.34 3 3 3 3-1.34 3-3-1.34-3-3-3m-6-6h9v4h-9z"/></svg>

<?xml version="1.0" encoding="UTF-8"?><!DOCTYPE svg PUBLIC "-//W3C//DTD SVG 1.1//EN" "http://www.w3.org/Graphics/SVG/1.1/DTD/svg11.dtd"><svg xmlns="http://www.w3.org/2000/svg" xmlns:xlink="http://www.w3.org/1999/xlink" version="1.1" id="mdi-content-save-settings-outline" width="24" height="24" viewBox="0 0 24 24"><path d="M7 22H9V24H7V22M11 22H13V24H11V22M15 22H17V24H15V22M17 2H5C3.89 2 3 2.9 3 4V18C3 19.1 3.89 20 5 20H19C20.1 20 21 19.1 21 18V6L17 2M19 18H5V4H16.17L19 6.83V18M12 11C10.34 11 9 12.34 9 14S10.34 17 12 17 15 15.66 15 14 13.66 11 12 11M6 5H15V9H6V5Z" /></svg>
